X: 35
T: Off She Goes
R: jig
Z: 1997 by John Chambers <jc:trillian.mit.edu>
B: NEFR #35
B: Cole p.58; Skye p.175
M: 6/8
L: 1/8
K: D
|:"D"F2A "G"G2B | "A7"ABc "D"d2A | "D"F2A "G"G2B | "D"AFD "A7"E3 \
| "D"F2A "G"G2B | "A7"ABc "D"d2e | "D"fed "G"g2f | "A7"edc "D"d3 :|
|:"D"faf     d2f |  "G"gbg "A7"e2g | "D"faf    d2f | "A7"ecA    A2g \
| "D"faf "Bm"d2f | "Em"gbg "A7"e2g | "D"f2d "G"g2f | "A7"edc "D"d3 :|


